dist/img/icons/left.svg

<svg width="32" height="42" viewBox="0 0 32 42" fill="none" xmlns="http://www.w3.org/2000/svg">
<path fill-rule="evenodd" clip-rule="evenodd" d="M21 1C9.9543 1 1 9.9543 1 21C1 32.0457 9.9543 41 21 41" fill="#EDF0F6"/>
<path d="M21 1C9.9543 1 1 9.9543 1 21C1 32.0457 9.9543 41 21 41V41" stroke="#979797"/>
<path d="M14 17L10 21L14 25V22H32V20H14V17Z" fill="#979797"/>
</svg>

<svg width="32" height="42" fill="none" xmlns="http://www.w3.org/2000/svg"><path fill-rule="evenodd" clip-rule="evenodd" d="M21 1C9.954 1 1 9.954 1 21s8.954 20 20 20" fill="#EDF0F6"/><path d="M21 1C9.954 1 1 9.954 1 21s8.954 20 20 20v0" stroke="#979797"/><path d="M14 17l-4 4 4 4v-3h18v-2H14v-3z" fill="#979797"/></svg>
